T: Tarantella
M: 6/8
L: 1/8
K: Amin
e3 a2 a | e3 ede | f2 f fgf | e3 efe | d2 d ded | c2 c c2 d | efe dcB | A3 :|A2 A c2 c | e2 e efe | d2 d ded | c3 zcB |A2 A c2 c | e2 e efe | gfe dcB | A3 :|gec gec | g3 gag | f2 f fgf | e3 e2 f |gec gec | g3 gag | bag fed | c3 :|
